svgs/sharp-solid/shield-exclamation.svg

<svg xmlns="http://www.w3.org/2000/svg" viewBox="0 0 512 512"><!--! Font Awesome Pro 6.6.0 by @fontawesome - https://fontawesome.com License - https://fontawesome.com/license (Commercial License) Copyright 2024 Fonticons, Inc. --><path d="M256 5.7l11.5 4.4L475 90.2l19.2 7.4 1.2 20.6c2.9 49.7-4.9 125.6-37.3 199.8C425.4 392.8 367 467.1 268.6 509.4L256 514.8l-12.6-5.4C145 467.1 86.6 392.8 53.9 318C21.4 243.7 13.6 167.8 16.6 118.1l1.2-20.6L37 90.2l207.5-80L256 5.7zM280 128l-48 0 0 24 0 112 0 24 48 0 0-24 0-112 0-24zM232 320l0 48 48 0 0-48-48 0z"/></svg>

<svg xmlns="http://www.w3.org/2000/svg" viewBox="0 0 512 512"><!--! Font Awesome Pro 6.4.2 by @fontawesome - https://fontawesome.com License - https://fontawesome.com/license (Commercial License) Copyright 2023 Fonticons, Inc. --><path d="M256 0l11.6 4.5L475.1 85l19.2 7.4 1.2 20.5c2.9 50-4.9 126.3-37.3 200.9c-32.7 75.2-91.1 150-189.4 192.6L256 512l-12.7-5.5C144.9 463.9 86.5 389.2 53.9 313.9C21.4 239.3 13.6 162.9 16.6 113l1.2-20.5L36.9 85 244.4 4.5 256 0zm24 128H232v24V264v24h48V264 152 128zM232 320v48h48V320H232z"/></svg>
